src/pos-icons/dumbbell.svg

<svg height="24" viewBox="0 0 24 24" width="24" xmlns="http://www.w3.org/2000/svg"><path d="m20.57 14.86 1.43-1.43-1.43-1.43-3.57 3.57-8.57-8.57 3.57-3.57-1.43-1.43-1.43 1.43-1.43-1.43-2.14 2.14-1.43-1.43-1.43 1.43 1.43 1.43-2.14 2.14 1.43 1.43-1.43 1.43 1.43 1.43 3.57-3.57 8.57 8.57-3.57 3.57 1.43 1.43 1.43-1.43 1.43 1.43 2.14-2.14 1.43 1.43 1.43-1.43-1.43-1.43 2.14-2.14z"/></svg>

<?xml version="1.0" encoding="UTF-8"?><!DOCTYPE svg PUBLIC "-//W3C//DTD SVG 1.1//EN" "http://www.w3.org/Graphics/SVG/1.1/DTD/svg11.dtd"><svg xmlns="http://www.w3.org/2000/svg" xmlns:xlink="http://www.w3.org/1999/xlink" version="1.1" id="mdi-dumbbell" width="24" height="24" viewBox="0 0 24 24"><path d="M20.57,14.86L22,13.43L20.57,12L17,15.57L8.43,7L12,3.43L10.57,2L9.14,3.43L7.71,2L5.57,4.14L4.14,2.71L2.71,4.14L4.14,5.57L2,7.71L3.43,9.14L2,10.57L3.43,12L7,8.43L15.57,17L12,20.57L13.43,22L14.86,20.57L16.29,22L18.43,19.86L19.86,21.29L21.29,19.86L19.86,18.43L22,16.29L20.57,14.86Z" /></svg>
